X:3
T:The bonny brow or In January last
Z:Jack Campin - http://www.campin.me.uk
S:Blaikie MS (NLS MS.1578) p1, Blaikie #2
M:2/4
L:1/16
V:1 midi program 1 74
V:2 midi program 1 46 bass middle = d transpose -24
Q:1/4=90
K:F
[V:1] f2|c3A    GAGF | F4   C4  |D<FFG A2G2 |G4    d2
[V:2] z2|F4     f4   | F4   A4  |B4   =B4   |c4    z2
%
[V:1] ef|c2A2   GAGF | FGAF C3C |DEF2  G2`A2|c6      ||
[V:2] z2|F4     f4   | f4   a4  |b2a2``g2`f2|c6      ||
%
[V:1] c2|B3c    dcd_e|_e4   defd|cdcA  GAGF |G6      
[V:2] z2|d'2c'2`b2g2 | a4   b4  |a2f2``e3d  |c2c'2`c2
%
[V:1] f2|c3A    GAGF | F4   C2C2|CDF2  A2`c2|f6      |]
[V:2] z2|F4     f4   | a2f2`a2f2|b2a2``c'2c2|f4    F2|]
W:Transcription (c) Jack Campin 2009, no mirroring or republication without permission

